dist/svg/u1F695.svg

<?xml version="1.0" encoding="UTF-8"?><svg id="Layer_1" xmlns="http://www.w3.org/2000/svg" viewBox="0 0 40 40"><g><g style="opacity:0;"><rect width="40" height="40" style="fill:none;"/></g><g><path d="M17.34034,4.92234h2.51932c.87387,0,1.58333,.70947,1.58333,1.58333v1.97198h-5.68599v-1.97198c0-.87387,.70947-1.58333,1.58333-1.58333Z" style="fill:#ffb72d;"/><path d="M30.67883,18.00919H5.80584l-2.47003,1.03291c-1.34297,.5616-2.21725,1.87485-2.21725,3.33052v7.34483c0,.99687,.80813,1.805,1.805,1.805H36.98105c1.04934,0,1.9-.85066,1.9-1.9v-6.65425c0-1.75845-1.20648-3.28722-2.91677-3.69593l-5.28546-1.26309Z" style="fill:#ffb72d;"/><g><circle cx="31.59929" cy="30.80266" r="4.275" style="fill:#313d4c;"/><circle cx="31.59929" cy="30.80266" r="1.71" style="fill:#6b7683;"/></g><g><circle cx="8.40071" cy="30.80266" r="4.275" style="fill:#313d4c;"/><circle cx="8.40071" cy="30.80266" r="1.71" style="fill:#6b7683;"/></g><path d="M30.67883,18.00898l-3.32163-8.27155c-.57834-1.44018-1.97434-2.38394-3.5263-2.38394H12.68996c-1.54675,0-2.93916,.93752-3.52095,2.37069l-3.36318,8.2848H30.67883Z" style="fill:#313d4c;"/><path d="M38.88145,25.53789h-.79229c-.65591,0-1.1875-.53159-1.1875-1.1875s.53159-1.1875,1.1875-1.1875h.79229v2.375Z" style="fill:#fff;"/><path d="M1.11855,25.53789h1.74229c.65591,0,1.1875-.53159,1.1875-1.1875s-.53159-1.1875-1.1875-1.1875H1.11855v2.375Z" style="fill:#ef4452;"/></g></g><g><rect x="13" y="23.95797" width="2" height="2" style="fill:#313d4c;"/><rect x="15" y="21.95797" width="2" height="2" style="fill:#313d4c;"/><rect x="17" y="23.95797" width="2" height="2" style="fill:#313d4c;"/><rect x="19" y="21.95797" width="2" height="2" style="fill:#313d4c;"/><rect x="21" y="23.95797" width="2" height="2" style="fill:#313d4c;"/><rect x="23" y="21.95797" width="2" height="2" style="fill:#313d4c;"/><rect x="25" y="23.95797" width="2" height="2" style="fill:#313d4c;"/></g></svg>

<svg id="Layer_1" data-name="Layer 1" xmlns="http://www.w3.org/2000/svg" viewBox="0 0 40 40"><defs><style>.cls-1{fill:none;opacity:0;}.cls-2{fill:#ffb72d;}.cls-3{fill:#313d4c;}.cls-4{fill:#6b7683;}.cls-5{fill:#fff;}.cls-6{fill:#ef4452;}</style></defs><rect class="cls-1" width="40" height="40"/><path class="cls-2" d="M17.34,4.922H19.86a1.583,1.583,0,0,1,1.583,1.583V8.478a0,0,0,0,1,0,0H15.757a0,0,0,0,1,0,0V6.506A1.583,1.583,0,0,1,17.34,4.922Z"/><path class="cls-2" d="M30.679,18.009H5.806l-2.47,1.033a3.61,3.61,0,0,0-2.217,3.331v7.344a1.8,1.8,0,0,0,1.805,1.8H36.981a1.9,1.9,0,0,0,1.9-1.9V22.968a3.8,3.8,0,0,0-2.917-3.7Z"/><circle class="cls-3" cx="31.599" cy="30.803" r="4.275"/><circle class="cls-4" cx="31.599" cy="30.803" r="1.71"/><circle class="cls-3" cx="8.401" cy="30.803" r="4.275"/><circle class="cls-4" cx="8.401" cy="30.803" r="1.71"/><path class="cls-3" d="M30.679,18.009,27.357,9.737a3.8,3.8,0,0,0-3.526-2.384H12.69A3.8,3.8,0,0,0,9.169,9.724L5.806,18.009Z"/><path class="cls-5" d="M38.881,25.538h-.792a1.188,1.188,0,0,1,0-2.375h.792Z"/><path class="cls-6" d="M1.119,25.538H2.861a1.188,1.188,0,0,0,0-2.375H1.119Z"/><rect class="cls-3" x="13" y="23.958" width="2" height="2"/><rect class="cls-3" x="15" y="21.958" width="2" height="2"/><rect class="cls-3" x="17" y="23.958" width="2" height="2"/><rect class="cls-3" x="19" y="21.958" width="2" height="2"/><rect class="cls-3" x="21" y="23.958" width="2" height="2"/><rect class="cls-3" x="23" y="21.958" width="2" height="2"/><rect class="cls-3" x="25" y="23.958" width="2" height="2"/></svg>
